X: 73
T:Duke's Reel,The. JBi.72
M:C|
Q:180
S:James Biggins MS,Leeds,1779
R:Reel
O:England
A:Yorkshire
Z:vmp.Chris Partington
K:D
AA/A/ f2ede2|BB/B/ g2 dBGB|AA/A/ f2 ede2|EE/E/ FG A2A2::!
AA/A/ aA aAaA|BB/B/ gB gBgB|AA/A/ aA aAaA|EE/E/ FG A2A2:||
